SVG_Azure_Grouped/Compute/Kubernetes Namespace.svg

<?xml version="1.0" encoding="UTF-8" standalone="no"?>
<!-- Generated by Microsoft Visio, SVG Export Kubernetes Namespace.svg Page-1 -->

<svg
   xmlns:dc="http://purl.org/dc/elements/1.1/"
   xmlns:cc="http://creativecommons.org/ns#"
   xmlns:rdf="http://www.w3.org/1999/02/22-rdf-syntax-ns#"
   xmlns:svg="http://www.w3.org/2000/svg"
   xmlns="http://www.w3.org/2000/svg"
   xmlns:sodipodi="http://sodipodi.sourceforge.net/DTD/sodipodi-0.dtd"
   xmlns:inkscape="http://www.inkscape.org/namespaces/inkscape"
   width="0.78738308in"
   height="0.62986004in"
   viewBox="0 0 56.691744 45.35002"
   xml:space="preserve"
   class="st6"
   version="1.1"
   id="svg55"
   sodipodi:docname="Kubernetes Namespace.svg"
   style="font-size:12px;overflow:visible;color-interpolation-filters:sRGB;fill:none;fill-rule:evenodd;stroke-linecap:square;stroke-miterlimit:3"
   inkscape:version="0.92.5 (2060ec1f9f, 2020-04-08)"><metadata
   id="metadata59"><rdf:RDF><cc:Work
       rdf:about=""><dc:format>image/svg+xml</dc:format><dc:type
         rdf:resource="http://purl.org/dc/dcmitype/StillImage" /></cc:Work></rdf:RDF></metadata><sodipodi:namedview
   pagecolor="#ffffff"
   bordercolor="#666666"
   borderopacity="1"
   objecttolerance="10"
   gridtolerance="10"
   guidetolerance="10"
   inkscape:pageopacity="0"
   inkscape:pageshadow="2"
   inkscape:window-width="640"
   inkscape:window-height="480"
   id="namedview57"
   showgrid="false"
   inkscape:zoom="1.5612629"
   inkscape:cx="37.796545"
   inkscape:cy="30.22564"
   inkscape:window-x="0"
   inkscape:window-y="0"
   inkscape:window-maximized="0"
   inkscape:current-layer="svg55" />
	<style
   type="text/css"
   id="style2">
	<![CDATA[
		.st1 {fill:#773adc;stroke:none;stroke-linecap:butt;stroke-width:34}
		.st2 {fill:#ffffff;fill-opacity:0.6;stroke:none;stroke-linecap:butt;stroke-width:34}
		.st3 {fill:url(#grad0-10);stroke:none;stroke-linecap:butt;stroke-width:34}
		.st4 {fill:#ffffff;fill-opacity:0.8;stroke:none;stroke-linecap:butt;stroke-width:34}
		.st5 {fill:#ffffff;stroke:none;stroke-linecap:butt;stroke-width:34}
		.st6 {fill:none;fill-rule:evenodd;font-size:12px;overflow:visible;stroke-linecap:square;stroke-miterlimit:3}
	]]>
	</style>

	<defs
   id="Patterns_And_Gradients">
		<linearGradient
   id="grad0-10"
   x1="-7.0787096e-07"
   y1="86.753547"
   x2="47.775216"
   y2="86.753547"
   gradientTransform="scale(1.1866346,0.84271942)"
   gradientUnits="userSpaceOnUse">
			<stop
   offset="0"
   stop-color="#a67af4"
   stop-opacity="1"
   id="stop4" />
			<stop
   offset="1"
   stop-color="#773adc"
   stop-opacity="1"
   id="stop6" />
		</linearGradient>
	</defs>
	<g
   id="g53"
   transform="translate(-33.999999,-34.004271)">
		<title
   id="title10">Page-1</title>
		<g
   id="group11308-1"
   transform="translate(34,-34.0157)">
			<title
   id="title12">Kubernetes Namespace.11308</title>
			<g
   id="group11309-2">
				<title
   id="title14">Sheet.11309</title>
				<g
   id="shape11310-3">
					<title
   id="title16">Sheet.11310</title>
					<path
   d="M 55.36,73.05 H 30.65 A 1.12756,1.10485 0 0 1 29.92,72.82 L 22.84,68.21 A 1.43622,1.40729 -180 0 0 22.11,68.02 H 1.34 A 1.33543,1.30854 -180 0 0 0,69.29 v 42.81 a 1.33543,1.30854 -180 0 0 1.34,1.27 h 54.02 a 1.32913,1.30236 -180 0 0 1.33,-1.27 V 74.35 a 1.33228,1.30545 -180 0 0 -1.33,-1.3 z"
   class="st1"
   id="path18"
   inkscape:connector-curvature="0"
   style="fill:#773adc;stroke:none;stroke-width:34;stroke-linecap:butt" />
				</g>
				<g
   id="shape11311-5"
   transform="translate(5.1685,-40.3547)">
					<title
   id="title21">Sheet.11311</title>
					<path
   d="m 0,112.85 a 0.532296,0.521575 -180 0 0 0.532283,0.52156 L 12.34,113.37 a 0.532296,0.521575 -180 0 0 0.532283,-0.52156 L 12.87,111.38 a 0.532296,0.521575 -180 0 0 -0.532283,-0.52156 L 0.53,110.85 a 0.532296,0.521575 -180 0 0 -0.532283,0.52156 z"
   class="st2"
   id="path23"
   inkscape:connector-curvature="0"
   style="fill:#ffffff;fill-opacity:0.6;stroke:none;stroke-width:34;stroke-linecap:butt" />
				</g>
				<g
   id="shape11312-7"
   transform="translate(0,-0.129619)">
					<title
   id="title26">Sheet.11312</title>
					<path
   d="M 55.36,73.11 H 28.35 A 1.20945,1.18509 -180 0 0 27.4,73.5 l -4.49,4.25 a 1.44252,1.41347 0 0 1 -0.94,0.36 H 1.34 A 1.33543,1.30854 -180 0 0 0,79.42 v 32.68 a 1.33858,1.31162 -180 0 0 1.34,1.27 h 54.02 a 1.33228,1.30545 -180 0 0 1.33,-1.27 V 74.48 a 1.33228,1.30545 -180 0 0 -1.26,-1.37 z"
   class="st3"
   id="path28"
   inkscape:connector-curvature="0"
   style="fill:url(#grad0-10);stroke:none;stroke-width:34;stroke-linecap:butt" />
				</g>
				<g
   id="shape11313-11"
   transform="translate(10.3181,-20.4304)">
					<title
   id="title31">Sheet.11313</title>
					<path
   d="m 0,112.16 a 1.23782,1.21289 -180 0 0 1.24,1.21 H 5.77 A 1.23782,1.21289 -180 0 0 7,112.16 v -2.82 A 1.23782,1.21289 -180 0 0 5.77,108.12 H 1.24 A 1.23782,1.21289 -180 0 0 0,109.34 Z"
   class="st4"
   id="path33"
   inkscape:connector-curvature="0"
   style="fill:#ffffff;fill-opacity:0.8;stroke:none;stroke-width:34;stroke-linecap:butt" />
				</g>
				<g
   id="shape11314-13"
   transform="translate(21.2661,-20.4304)">
					<title
   id="title36">Sheet.11314</title>
					<path
   d="m 0,112.19 a 1.20003,1.17586 -180 0 0 1.2,1.18 h 22.53 a 1.20003,1.17586 -180 0 0 1.2,-1.18 v -2.89 a 1.20003,1.17586 -180 0 0 -1.2,-1.18 H 1.2 A 1.20003,1.17586 -180 0 0 0,109.3 Z"
   class="st5"
   id="path38"
   inkscape:connector-curvature="0"
   style="fill:#ffffff;stroke:none;stroke-width:34;stroke-linecap:butt" />
				</g>
				<g
   id="shape11315-15"
   transform="translate(10.3181,-11.1442)">
					<title
   id="title41">Sheet.11315</title>
					<path
   d="m 0,112.16 a 1.23782,1.21289 -180 0 0 1.24,1.21 H 5.77 A 1.23782,1.21289 -180 0 0 7,112.16 v -2.82 A 1.23782,1.21289 -180 0 0 5.77,108.12 H 1.24 A 1.23782,1.21289 -180 0 0 0,109.34 Z"
   class="st4"
   id="path43"
   inkscape:connector-curvature="0"
   style="fill:#ffffff;fill-opacity:0.8;stroke:none;stroke-width:34;stroke-linecap:butt" />
				</g>
				<g
   id="shape11316-17"
   transform="translate(21.2661,-11.1442)">
					<title
   id="title46">Sheet.11316</title>
					<path
   d="m 0,112.19 a 1.20003,1.17586 -180 0 0 1.2,1.18 h 22.53 a 1.20003,1.17586 -180 0 0 1.2,-1.18 v -2.89 a 1.20003,1.17586 -180 0 0 -1.2,-1.18 H 1.2 A 1.20003,1.17586 -180 0 0 0,109.3 Z"
   class="st5"
   id="path48"
   inkscape:connector-curvature="0"
   style="fill:#ffffff;stroke:none;stroke-width:34;stroke-linecap:butt" />
				</g>
			</g>
		</g>
	</g>
</svg>

<?xml version="1.0" encoding="UTF-8" standalone="no"?>
<!DOCTYPE svg PUBLIC "-//W3C//DTD SVG 1.1//EN" "http://www.w3.org/Graphics/SVG/1.1/DTD/svg11.dtd">
<!-- Generated by Microsoft Visio, SVG Export Kubernetes Namespace.svg Page-1 -->
<svg xmlns="http://www.w3.org/2000/svg" xmlns:xlink="http://www.w3.org/1999/xlink" xmlns:ev="http://www.w3.org/2001/xml-events"
		width="1.73187in" height="1.57458in" viewBox="0 0 124.695 113.37" xml:space="preserve" color-interpolation-filters="sRGB"
		class="st6">
	<style type="text/css">
	<![CDATA[
		.st1 {fill:#773adc;stroke:none;stroke-linecap:butt;stroke-width:34}
		.st2 {fill:#ffffff;fill-opacity:0.6;stroke:none;stroke-linecap:butt;stroke-width:34}
		.st3 {fill:url(#grad0-10);stroke:none;stroke-linecap:butt;stroke-width:34}
		.st4 {fill:#ffffff;fill-opacity:0.8;stroke:none;stroke-linecap:butt;stroke-width:34}
		.st5 {fill:#ffffff;stroke:none;stroke-linecap:butt;stroke-width:34}
		.st6 {fill:none;fill-rule:evenodd;font-size:12px;overflow:visible;stroke-linecap:square;stroke-miterlimit:3}
	]]>
	</style>

	<defs id="Patterns_And_Gradients">
		<linearGradient id="grad0-10" x1="0" y1="0" x2="1" y2="0" gradientTransform="rotate(90 0.5 0.5)">
			<stop offset="0" stop-color="#a67af4" stop-opacity="1"/>
			<stop offset="1" stop-color="#773adc" stop-opacity="1"/>
		</linearGradient>
	</defs>
	<g>
		<title>Page-1</title>
		<g id="group11062-1" transform="translate(34,-34.0157)">
			<title>Kubernetes Namespace.11062</title>
			<g id="group11063-2">
				<title>Sheet.11063</title>
				<g id="shape11064-3">
					<title>Sheet.11064</title>
					<path d="M55.36 73.05 L30.65 73.05 A1.12756 1.10485 0 0 1 29.92 72.82 L22.84 68.21 A1.43622 1.40729 -180 0 0
								 22.11 68.02 L1.34 68.02 A1.33543 1.30854 -180 0 0 -0 69.29 L0 112.1 A1.33543 1.30854 -180 0 0 1.34
								 113.37 L55.36 113.37 A1.32913 1.30236 -180 0 0 56.69 112.1 L56.69 74.35 A1.33228 1.30545 -180 0
								 0 55.36 73.05 Z" class="st1"/>
				</g>
				<g id="shape11065-5" transform="translate(5.1685,-40.3547)">
					<title>Sheet.11065</title>
					<path d="M0 112.85 a0.532296 0.521575 -180 0 0 0.532283 0.521562 L12.34 113.37 a0.532296 0.521575 -180 0 0 0.532283
								 -0.521562 L12.87 111.38 a0.532296 0.521575 -180 0 0 -0.532283 -0.521562 L0.53 110.85 a0.532296 0.521575
								 -180 0 0 -0.532283 0.521562 L0 112.85 Z" class="st2"/>
				</g>
				<g id="shape11066-7" transform="translate(0,-0.129619)">
					<title>Sheet.11066</title>
					<path d="M55.36 73.11 L28.35 73.11 A1.20945 1.18509 -180 0 0 27.4 73.5 L22.91 77.75 A1.44252 1.41347 0 0 1 21.97
								 78.11 L1.34 78.11 A1.33543 1.30854 -180 0 0 0 79.42 L0 112.1 A1.33858 1.31162 -180 0 0 1.34 113.37
								 L55.36 113.37 A1.33228 1.30545 -180 0 0 56.69 112.1 L56.69 74.48 A1.33228 1.30545 -180 0 0 55.43
								 73.11 L55.36 73.11 Z" class="st3"/>
				</g>
				<g id="shape11067-11" transform="translate(10.3181,-20.4304)">
					<title>Sheet.11067</title>
					<path d="M0 112.16 A1.23782 1.21289 -180 0 0 1.24 113.37 L5.77 113.37 A1.23782 1.21289 -180 0 0 7 112.16 L7 109.34
								 A1.23782 1.21289 -180 0 0 5.77 108.12 L1.24 108.12 A1.23782 1.21289 -180 0 0 -0 109.34 L0 112.16
								 Z" class="st4"/>
				</g>
				<g id="shape11068-13" transform="translate(21.2661,-20.4304)">
					<title>Sheet.11068</title>
					<path d="M0 112.19 A1.20003 1.17586 -180 0 0 1.2 113.37 L23.73 113.37 A1.20003 1.17586 -180 0 0 24.93 112.19
								 L24.93 109.3 A1.20003 1.17586 -180 0 0 23.73 108.12 L1.2 108.12 A1.20003 1.17586 -180 0 0 0 109.3
								 L0 112.19 Z" class="st5"/>
				</g>
				<g id="shape11069-15" transform="translate(10.3181,-11.1442)">
					<title>Sheet.11069</title>
					<path d="M0 112.16 A1.23782 1.21289 -180 0 0 1.24 113.37 L5.77 113.37 A1.23782 1.21289 -180 0 0 7 112.16 L7 109.34
								 A1.23782 1.21289 -180 0 0 5.77 108.12 L1.24 108.12 A1.23782 1.21289 -180 0 0 -0 109.34 L0 112.16
								 Z" class="st4"/>
				</g>
				<g id="shape11070-17" transform="translate(21.2661,-11.1442)">
					<title>Sheet.11070</title>
					<path d="M0 112.19 A1.20003 1.17586 -180 0 0 1.2 113.37 L23.73 113.37 A1.20003 1.17586 -180 0 0 24.93 112.19
								 L24.93 109.3 A1.20003 1.17586 -180 0 0 23.73 108.12 L1.2 108.12 A1.20003 1.17586 -180 0 0 0 109.3
								 L0 112.19 Z" class="st5"/>
				</g>
			</g>
		</g>
	</g>
</svg>
